inst/assets/svg/wi-moon-alt-waning-gibbous-4.svg

<?xml version="1.0" encoding="UTF-8"?>
<svg xmlns="http://www.w3.org/2000/svg" xmlns:xlink="http://www.w3.org/1999/xlink" width="30pt" height="30pt" viewBox="0 0 30 30" version="1.1">
<g id="surface371">
<path style=" stroke:none;fill-rule:nonzero;fill:rgb(0%,0%,0%);fill-opacity:1;" d="M 3.738281 14.441406 C 3.738281 12.921875 4.039063 11.460938 4.628906 10.070313 C 5.21875 8.679688 6.03125 7.488281 7.03125 6.480469 C 8.03125 5.46875 9.230469 4.671875 10.621094 4.078125 C 12.011719 3.488281 13.460938 3.191406 14.988281 3.191406 C 16.519531 3.191406 17.96875 3.488281 19.359375 4.078125 C 20.75 4.671875 21.949219 5.480469 22.960938 6.480469 C 23.96875 7.480469 24.769531 8.679688 25.359375 10.070313 C 25.949219 11.460938 26.25 12.910156 26.25 14.441406 C 26.25 15.96875 25.949219 17.421875 25.359375 18.808594 C 24.769531 20.199219 23.960938 21.398438 22.960938 22.410156 C 21.960938 23.421875 20.761719 24.21875 19.359375 24.808594 C 17.960938 25.398438 16.511719 25.699219 14.988281 25.699219 C 13.46875 25.699219 12.011719 25.398438 10.621094 24.808594 C 9.230469 24.21875 8.039063 23.410156 7.03125 22.410156 C 6.019531 21.410156 5.21875 20.210938 4.628906 18.808594 C 4.039063 17.410156 3.738281 15.96875 3.738281 14.441406 Z M 4.941406 14.441406 C 4.941406 15.808594 5.210938 17.109375 5.738281 18.351563 C 6.269531 19.589844 6.988281 20.660156 7.890625 21.558594 C 8.789063 22.460938 9.859375 23.171875 11.101563 23.710938 C 12.339844 24.25 13.640625 24.511719 15 24.511719 L 15.378906 24.511719 C 15.980469 23.871094 16.480469 23.140625 16.878906 22.320313 C 17.28125 21.5 17.589844 20.648438 17.78125 19.738281 C 17.96875 18.828125 18.109375 17.96875 18.191406 17.148438 C 18.269531 16.328125 18.308594 15.421875 18.308594 14.449219 C 18.308594 12.570313 18.070313 10.75 17.578125 8.988281 C 17.089844 7.230469 16.328125 5.710938 15.28125 4.398438 L 15 4.398438 C 13.640625 4.398438 12.339844 4.671875 11.101563 5.199219 C 9.859375 5.730469 8.789063 6.441406 7.890625 7.339844 C 6.988281 8.238281 6.28125 9.308594 5.738281 10.550781 C 5.199219 11.789063 4.941406 13.089844 4.941406 14.441406 Z M 4.941406 14.441406 "/>
</g>
</svg>

<?xml version="1.0" encoding="utf-8"?>
<!-- Generator: Adobe Illustrator 22.0.1, SVG Export Plug-In . SVG Version: 6.00 Build 0)  -->
<svg version="1.1" id="Layer_1" xmlns="http://www.w3.org/2000/svg" xmlns:xlink="http://www.w3.org/1999/xlink" x="0px" y="0px"
	 viewBox="0 0 30 30" style="enable-background:new 0 0 30 30;" xml:space="preserve">
<path d="M3.74,14.44c0-1.52,0.3-2.98,0.89-4.37s1.4-2.58,2.4-3.59s2.2-1.81,3.59-2.4s2.84-0.89,4.37-0.89s2.98,0.3,4.37,0.89
	s2.59,1.4,3.6,2.4s1.81,2.2,2.4,3.59s0.89,2.84,0.89,4.37s-0.3,2.98-0.89,4.37s-1.4,2.59-2.4,3.6s-2.2,1.81-3.6,2.4
	s-2.85,0.89-4.37,0.89s-2.98-0.3-4.37-0.89s-2.58-1.4-3.59-2.4s-1.81-2.2-2.4-3.6S3.74,15.97,3.74,14.44z M4.94,14.44
	c0,1.37,0.27,2.67,0.8,3.91s1.25,2.31,2.15,3.21s1.97,1.61,3.21,2.15s2.54,0.8,3.9,0.8h0.38c0.6-0.64,1.1-1.37,1.5-2.19
	s0.71-1.67,0.9-2.58s0.33-1.77,0.41-2.59s0.12-1.73,0.12-2.7c0-1.88-0.24-3.7-0.73-5.46s-1.25-3.28-2.3-4.59h-0.28
	c-1.36,0-2.66,0.27-3.9,0.8S8.79,6.44,7.89,7.34s-1.61,1.97-2.15,3.21S4.94,13.09,4.94,14.44z"/>
</svg>
